X:1
T:Title
%%score { 1 | ( 2 3 ) }
L:1/8
Q:1/4=100
M:6/8
K:D
V:1 treble nm="Grand Piano"
V:2 bass 
V:3 bass 
V:1
 [FA]>B[FA] [EG][DF][CE] | [DF]3[K:bass] .[F,D]3 | [CE]2 [CE] [CE][B,D][K:treble][CE] | [DF]6 | %4
w: Nola~M.~Squire * * * * *||||
 [FA]>B[FA] [EG][DF][CE] | [GB]3 .[FA]3 | [FA]2 [FB] [DF]2 [CE] | [F,D]6 |] %8
w: ||||
V:2
 .D,>[K:treble]GA,[K:bass] A,,E,A, | D,F,A, .D,3 | A,,E,A, A,,E,A, | D,F,A, .D,3 | %4
 .D,>[K:treble]GA,[K:bass] A,,E,A, | D,G,B, .D3 | A,,D,F, A,,E,G, | D,A,,F,, .D,,3 |] %8
V:3
 z .F,2[K:treble][K:bass] z3 | x6 | x6 | x6 | z .F,2[K:treble][K:bass] z3 | x6 | x6 | x6 |] %8

